assets/icons/me-icon.svg

<svg width="24" height="24" xmlns="http://www.w3.org/2000/svg" fill-rule="evenodd" clip-rule="evenodd"><path d="M24 24h-24v-24h24v24zm-2-22h-20v20h20v-20zm-4.118 14.064c-2.293-.529-4.427-.993-3.394-2.945 3.146-5.942.834-9.119-2.488-9.119-3.388 0-5.643 3.299-2.488 9.119 1.064 1.963-1.15 2.427-3.394 2.945-2.048.473-2.124 1.49-2.118 3.269l.004.667h15.993l.003-.646c.007-1.792-.062-2.815-2.118-3.29z"/></svg>

<?xml version="1.0" encoding="utf-8"?>
<!-- Generator: Adobe Illustrator 24.1.1, SVG Export Plug-In . SVG Version: 6.00 Build 0)  -->
<svg version="1.1" id="Layer_1" xmlns="http://www.w3.org/2000/svg" xmlns:xlink="http://www.w3.org/1999/xlink" x="0px" y="0px"
	 viewBox="0 0 24 24" style="enable-background:new 0 0 24 24;" xml:space="preserve">
<style type="text/css">
	.st0{fill-rule:evenodd;clip-rule:evenodd;fill:#E6E6E6;}
</style>
<path class="st0" d="M24,24H0V0h24V24z M22,2H2v20h20V2z M17.9,16.1c-2.3-0.5-4.4-1-3.4-2.9C17.6,7.2,15.3,4,12,4
	c-3.4,0-5.6,3.3-2.5,9.1c1.1,2-1.1,2.4-3.4,2.9c-2,0.5-2.1,1.5-2.1,3.3L4,20h16l0-0.6C20,17.6,19.9,16.5,17.9,16.1z"/>
</svg>
